X: 1
T: Beth Cohen's
C:Larry Unger
M: C|
L: 1/8
R: reel
K: Amin %Transposed from EMIN
"A"A_B^cd efed|egfe "Bb"fed^c|"A"A_B^cd efed|efed "Bb"e2 ee|
"A"A_B^cd efed|egfe "Bb"fed^c|"A"d^c_Bd "Bb"cBAG| "A"A2 E2 A2 z2 :|
[|:"A"A2 eA "Bb" _B2 ed|"A"^cd e2 -egfe|A2 eA "Bb"_B2 ed|"Gm"^c_B G2-GdcB|
"A"A2 eA "Bb" _B2 ed|"A"^cdeg a3_b|a_bag "Gm"fed^c|1"A"^c6 z2:|\
	[2 "A"a6 z2||

